X:1
T:After the Battle of Aughrim
S:Swallowtai - Amy Cann's version
M:C
K:ADor
AG|"Am"E2A2 ABcd | e2d2 c2A2 |"G" B2G2 GFGA | BGAG E2ED |
"Am"E2A2 ABcd | e2ed e2ag | "G"e2d2 BedB | "Am"A4-A2 :|
|:eg|"Am"a2ag e2eg | abag e2eg | a2af "G"g2ge |"Am" dedB A2 eg | 
"Am"a2ag e2eg | abag e2ed | "G"B2e2 d2B2 |"Am" A4-A2 :|
